icons/1_Primary/Enom.svg

<svg width="1024" height="1024" fill="none" xmlns="http://www.w3.org/2000/svg"><g clip-path="url(#a)"><path d="M512 1024c282.77 0 512-229.23 512-512S794.77 0 512 0 0 229.23 0 512s229.23 512 512 512Z" fill="#F8C18C"/><path d="M752.29 452.46A46.112 46.112 0 0 0 712 473.53a39.815 39.815 0 0 0-36-21.07 46.617 46.617 0 0 0-32.78 12.62l-.66-8a1.561 1.561 0 0 0-1.56-1.43h-24.14a1.557 1.557 0 0 0-1.56 1.56v109.62a1.56 1.56 0 0 0 1.56 1.56h24.92a1.563 1.563 0 0 0 1.56-1.56v-51.74c.68-22.81 11.33-35.22 25.69-35.22 16.17 0 23.38 13.16 23.38 30.56v56.4a1.56 1.56 0 0 0 1.56 1.56h24.92a1.56 1.56 0 0 0 1.56-1.56v-49.36c0-22.65 10.53-37.6 24.92-37.6C761 479.87 768 493 768 510.43v56.4a1.56 1.56 0 0 0 1.56 1.56h24.06a1.563 1.563 0 0 0 1.56-1.56v-56.4c.12-36.18-17-57.97-42.89-57.97Zm-211.83 0c-31.85 0-57.67 26.66-57.67 59.53 0 32.87 25.82 59.53 57.67 59.53s57.67-26.66 57.67-59.53c0-32.87-25.83-59.53-57.67-59.53Zm0 92c-16.15 0-29.61-14.54-29.61-32.5s13.48-32.5 29.61-32.5 29.6 14.54 29.6 32.54-13.45 32.49-29.6 32.49v-.03Zm-120-92a48.429 48.429 0 0 0-34.25 13.59l-.68-8.9a1.558 1.558 0 0 0-1.56-1.45h-24.29a1.557 1.557 0 0 0-1.56 1.56v109.57a1.56 1.56 0 0 0 1.56 1.56h24.92a1.56 1.56 0 0 0 1.56-1.56v-51.62c.75-22.88 12.75-35.34 27.18-35.34 16.17 0 24.17 13.16 24.17 30.56v56.4a1.56 1.56 0 0 0 1.56 1.56H464a1.56 1.56 0 0 0 1.56-1.56v-56.4c.08-36.18-18.38-57.97-45.13-57.97h.03Zm-102.82 80.87a1.537 1.537 0 0 0-2.11.11 38.24 38.24 0 0 1-12.444 8.443 38.251 38.251 0 0 1-14.736 2.997 29.906 29.906 0 0 1-17.87-5.28L340 488.8a1.563 1.563 0 0 0 .41-1.86c-4.76-10.46-20.68-34.43-52.1-34.43a59.529 59.529 0 0 0-41.594 101.345 59.53 59.53 0 0 0 41.594 17.705c18.48 0 37.17-8.2 48-20.68a1.58 1.58 0 0 0 .311-.527 1.574 1.574 0 0 0-.071-1.197 1.558 1.558 0 0 0-.37-.486l-.07-.06-18.47-15.28Zm-29.45-54.23a27.177 27.177 0 0 1 17.58 5.57l-49.2 35.95c-5.59-20.36 11.21-41.52 31.69-41.52h-.07Z" fill="#fff"/></g><defs><clipPath id="a"><path fill="#fff" d="M0 0h1024v1024H0z"/></clipPath></defs></svg>

<svg width="1024" height="1024" viewBox="0 0 1024 1024" fill="none" xmlns="http://www.w3.org/2000/svg">
<g clip-path="url(#clip0_2_2088)">
<path d="M512 1024C794.77 1024 1024 794.77 1024 512C1024 229.23 794.77 0 512 0C229.23 0 0 229.23 0 512C0 794.77 229.23 1024 512 1024Z" fill="#F8C18C"/>
<path d="M752.29 452.46C744.326 452.192 736.429 453.992 729.368 457.685C722.307 461.377 716.323 466.836 712 473.53C708.534 467.032 703.335 461.623 696.98 457.904C690.624 454.184 683.362 452.3 676 452.46C663.846 452.232 652.083 456.76 643.22 465.08L642.56 457.08C642.527 456.689 642.349 456.325 642.06 456.06C641.77 455.795 641.392 455.648 641 455.65H616.86C616.446 455.65 616.049 455.814 615.757 456.107C615.464 456.399 615.3 456.796 615.3 457.21V566.83C615.3 567.243 615.464 567.64 615.757 567.933C616.049 568.225 616.446 568.39 616.86 568.39H641.78C642.194 568.39 642.59 568.225 642.883 567.933C643.176 567.64 643.34 567.243 643.34 566.83V515.09C644.02 492.28 654.67 479.87 669.03 479.87C685.2 479.87 692.41 493.03 692.41 510.43V566.83C692.41 567.243 692.574 567.64 692.867 567.933C693.159 568.225 693.556 568.39 693.97 568.39H718.89C719.304 568.39 719.701 568.225 719.993 567.933C720.286 567.64 720.45 567.243 720.45 566.83V517.47C720.45 494.82 730.98 479.87 745.37 479.87C761 479.87 768 493 768 510.43V566.83C768 567.243 768.164 567.64 768.457 567.933C768.749 568.225 769.146 568.39 769.56 568.39H793.62C794.034 568.39 794.43 568.225 794.723 567.933C795.016 567.64 795.18 567.243 795.18 566.83V510.43C795.3 474.25 778.18 452.46 752.29 452.46ZM540.46 452.46C508.61 452.46 482.79 479.12 482.79 511.99C482.79 544.86 508.61 571.52 540.46 571.52C572.31 571.52 598.13 544.86 598.13 511.99C598.13 479.12 572.3 452.46 540.46 452.46ZM540.46 544.46C524.31 544.46 510.85 529.92 510.85 511.96C510.85 494 524.33 479.46 540.46 479.46C556.59 479.46 570.06 494 570.06 512C570.06 530 556.61 544.49 540.46 544.49V544.46ZM420.46 452.46C407.699 452.3 395.39 457.184 386.21 466.05L385.53 457.15C385.502 456.755 385.326 456.386 385.036 456.117C384.746 455.848 384.365 455.699 383.97 455.7H359.68C359.266 455.7 358.869 455.864 358.577 456.157C358.284 456.449 358.12 456.846 358.12 457.26V566.83C358.12 567.243 358.284 567.64 358.577 567.933C358.869 568.225 359.266 568.39 359.68 568.39H384.6C385.014 568.39 385.411 568.225 385.703 567.933C385.996 567.64 386.16 567.243 386.16 566.83V515.21C386.91 492.33 398.91 479.87 413.34 479.87C429.51 479.87 437.51 493.03 437.51 510.43V566.83C437.51 567.243 437.674 567.64 437.967 567.933C438.259 568.225 438.656 568.39 439.07 568.39H464C464.414 568.39 464.811 568.225 465.103 567.933C465.396 567.64 465.56 567.243 465.56 566.83V510.43C465.64 474.25 447.18 452.46 420.43 452.46H420.46ZM317.64 533.33C317.341 533.075 316.955 532.945 316.563 532.966C316.171 532.986 315.801 533.156 315.53 533.44C311.982 537.05 307.752 539.92 303.086 541.883C298.421 543.847 293.412 544.866 288.35 544.88C281.983 545.068 275.722 543.218 270.48 539.6L340 488.8C340.264 488.578 340.448 488.276 340.522 487.939C340.596 487.603 340.557 487.251 340.41 486.94C335.65 476.48 319.73 452.51 288.31 452.51C272.657 452.713 257.713 459.073 246.716 470.214C235.718 481.355 229.552 496.38 229.552 512.035C229.552 527.689 235.718 542.714 246.716 553.855C257.713 564.996 272.657 571.357 288.31 571.56C306.79 571.56 325.48 563.36 336.31 550.88C336.447 550.726 336.553 550.547 336.621 550.353C336.688 550.159 336.717 549.953 336.705 549.748C336.693 549.542 336.64 549.341 336.55 549.156C336.46 548.971 336.334 548.806 336.18 548.67L336.11 548.61L317.64 533.33ZM288.19 479.1C294.52 478.851 300.738 480.821 305.77 484.67L256.57 520.62C250.98 500.26 267.78 479.1 288.26 479.1H288.19Z" fill="white"/>
</g>
<defs>
<clipPath id="clip0_2_2088">
<rect width="1024" height="1024" fill="white"/>
</clipPath>
</defs>
</svg>
